X:1
T:Title
%%score 1 { 2 | 3 }
L:1/8
Q:1/4=82
M:6/8
K:G
V:1 treble nm="Grand Piano, Soprano"
V:2 treble nm="Choir Pad, Bass"
V:3 bass 
V:1
 B>BB BGA | BcG .B3 | AAA FGA | [Fd][Fd][Ed] .B3 | B>BB BGA | BcG .B3 | AAA dAF | AB^c .d3 | %8
w: By~Adam~Geibel * * * * *||||||||
 [Fd]>[Fd][Fd] [Fd][FA][GB] | [Ac][GB][FA] .[GB]3 | [^DB]>[DB][DB] [DB][DF][EG] | %11
w: |||
 [FA][EG][^DF] .[EG]3 | [=FG]>[FG][FG] [Ec][Ec][Ec] | [DB][Dc][DB] [CA]2 E | %14
w: |||
 [EG]>[EG][EG] [Ge][Gd][GB] | [GA][FB]>[FA] [DG]3- | [DG]3 z3 |] %17
w: |||
V:2
 D>DD DB,C | DE^D .=D3 | CCC A,B,C | FFE .D3 | D>DD DB,C | DE^D .=D3 | ^CCC DD[K:bass]A, | %7
 A,^G,=G, .F,3 | A,>A,A, A,[K:treble]DD | DDD .D3 | B,>B,B, B,B,B, | B,B,B, .B,3 | B,>B,B, CG,G, | %13
 ^G,G,G, A,2 E, | _B,>B,B, =B,B,[K:treble]D | ^CD>=C B,3- | B,3 z3 |] %17
V:3
 G,6- | G,3 .G,3 | D,6- | D,3 .G,3 | G,6- | G,6 | A,2 G, .F,3 | A,,3 .D,3 | D,>D,D, D,D,D, | %9
 D,D,D, .G,3 | B,,>B,,B,, B,,B,,B,, | B,,B,,B,, .E,3 | G,>G,G, C,C,C, | E,E,E, .A,,3 | %14
 ^C,>C,C, D,D,D, | A,,D,>D, G,,3- | G,,3 z3 |] %17

